X: 354
T: Bir Damlacık Suda Koptu...
C: Ömer Dilek
O: Turkey
F: http://compmusic.upf.edu/node/140
N: huseyni--sarki--aksak--bir_damlacik--omer_dilek
N: makam= huseyni
N: form= sarki
N: usul= aksak = 9/8
M: 9/8
L: 1/16
K: C _2/4B ^3/4f  
Q: 1/4=228
%%MIDI tuningsystem comma53
A4 g4 =f4 e4 d2 | e2 d2e2 c2d4c2 B2A2  | \
w:  ARANAĞME  |   | 
A4 g4 =f4 e4 d2 | e2 d2c2 d2e8z2  | 
w:   |   | 
d4 e2f2 g2f2 g4 f2 | g2 f2g2 a2g2 =f2e4d2  | \
w:   |   | 
d4 e2d2 c2B2 d4 c2 | 
w:   | 
c16z2  | z4 B2c2 d4 d4 z2 | c2 B2c2 d2c2 B2A4z2  | \
w:   |   |   | 
G4 c4 B4 A4 G2 | 
w:   | 
A8B2 c2d6  | z4 B2c2 d4 d4 z2 | c2 B2c2 d2c2 B2A4z2  | \
w:   |   |   | 
G4 c4 B4 A4 G2 | 
w:   | 
A4A4A4A4z2  | A4 g4 =f2e6 z2 | z4e2 =f2e4d6  | \
w:   |  Bir  dam la cık   |  su da  kop tu   | 
e3d c2d2 e8 z2 | 
w:  fır *  *  tı na    | 
e2 d2c2 d2e8-e2  | z4 e2=f2 e2d8 | z4d2 e2d4c6  | \
w:  SAZ  |  Yü re ği min   |  ü ze rin de   | 
e2d2 c2d2 d8-d2 | 
w:  bu lut *  *  lar    | 
e2 d2c2 d2d4d6  | z2f4g2 a4 a6 | z2 e4 e2e4e4d2  | \
w:  SAZ  |  Ba zı  gün ler   |  pem be  ba zen   | 
z2d4B2 c8 z2 | 
w:  kap ka ra    | 
d4B4c8z2  | z4 B2c2 B4 A6 | z4B2 c2B2 A8  | \
w:  SAZ  |  Yi ne  hic ran   |  yi ne  ke der   | 
B4 G4 A8 z2 | A2 B2c2 d2e2 f2g2 a4  | 
w:  is yan  var    |  SAZ  | 
z2f4g2 a4 a6 | z2 e4 e2e4e4d2  | z2d4B2 c8 z2 | \
w:  Ba zı  gün ler   |  pem be  ba zen   |  kap ka ra    | 
d4B4c8z2  | z4 B2c2 B4 A6 | 
w:  SAZ  |  Yi ne  hic ran   | 
z4B2 c2B2 A8  | B4 G4 A8 z2 | B4G4A8-A2  | \
w:  yi ne  ke der   |  is yan  var    |  SAZ  | 
z4 f2g2 a2a6 z2 | z2 a4 g2c'4b4a2  | 
w:  A ra sı ra   |  böy le  is yan  | 
b2a2 g2f2 e8 z2 | b2 a2g2 f2e4e4z2  | \
w:  lar  *  *  o lur    |  SAZ  | 
f4 g4 a4 a4 z2 | g4=f4e4d6  | 
w:  Gön lüm  yor gun   |  ru hum  bir den   | 
e4 ^c2d2 c8 z2 | e4^c2 d2c4c4z2  | d4 d4 d4 d4 z2 | \
w:  *  du ru lur    |  SAZ  |  Yıl lar  son ra   | 
e4d4d2 ^c8  | z4 _7/8B2^c2 B8 z2 | 
w:  kim den  he sap   |  so ru lur    | 
d2 ^c2_7/8B2 c2B4B4z2  | z4 G2A2 A4 a6 | \
w:  SAZ  |  Yi ne  hic ran   | 
z4g2 =f2e2 d2c2 B2A2  | B4 G4 A8-A2 | 
w:  yi ne  ke der   |  is yan  var    | 
B4G4A4A6  | A4 g4 =f4 e4 d2 | e2 d2e2 c2d4c2 B2A2  | \
w:  SAZ  |  ARANAĞME  |   | 
A4 g4 =f4 e4 d2 | 
w:   | 
e2 d2c2 d2e8z2  | d4 e2f2 g2f2 g4 f2 | \
w:   |   | 
g2 f2g2 a2g2 =f2e4d2  | 
w:   | 
d4 e2d2 c2B2 d4 c2 | c16z2  | z4 B2c2 d4 d4 z2 | \
w:   |   |   | 
c2 B2c2 d2c2 B2A4z2  | 
w:   | 
G4 c4 B4 A4 G2 | A8B2 c2d6  | z4 B2c2 d4 d4 z2 | \
w:   |   |   | 
c2 B2c2 d2c2 B2A4z2  | 
w:   | 
G4 c4 B4 A4 G2 | A4A4A4A4z2  | z4 A2g2 =f2e6 z2 | \
w:   |   |  Ku ra ma dım   | 
e4=f4e2 d4 z4  | 
w:  ben  dost lu ğu   | 
e3d c2d2 e8 z2 | e2 d2c2 d2e4e6  | z4 e2=f2 e4 d4 z2 | \
w:  gön *  lüm *  le    |  SAZ  |  A cı  çek ti   | 
d4e4d2 c4 z4  | 
w:  yıl lar  yı lı   | 
e2d2 c2d2 d8-d2 | e2 d2c2 d2d4d6  | f4 g2a2 a8 z2 | \
w:  boş  *  *  ye re    |  SAZ  |  Din le me di   | 
z2 e4 e2e2 d4 z4  | 
w:  hiç  sö zü mü   | 
d4 B4 c8 z2 | d4B4c4c4z2  | z4 B2c2 B4 A6 | \
w:  öm rüm ce    |  SAZ  |  Yi ne  hic ran   | 
z4B2 c2B2 A8  | B4 G4 A8 z2 | 
w:  yi ne  ke der   |  is yan  var    | 
A2 B2c2 d2e2 f2g2 a4  | f4 g2a2 a8 z2 | \
w:  SAZ  |  Din le me di   | 
z2 e4 e2e2 d4 z4  | d4 B4 c8 z2 | 
w:  hiç  sö zü mü   |  öm rüm ce    | 
d4B4c4c4z2  | z4 B2c2 B4 A6 | z4B2 c2B2 A8  | \
w:  SAZ  |  Yi ne  hic ran   |  yi ne  ke der   | 
B4 G4 A8 z2 | B4G4A4A6  | 
w:  is yan  var    |  SAZ  | 
|


